Papirus/22x22/panel/krb-no-valid-ticket.svg

<?xml version="1.0" encoding="UTF-8" standalone="no"?>
<svg id="svg6530" xmlns:rdf="http://www.w3.org/1999/02/22-rdf-syntax-ns#" xmlns="http://www.w3.org/2000/svg" height="22" width="22" version="1.1" xmlns:cc="http://creativecommons.org/ns#" viewBox="0 0 22 22" xmlns:dc="http://purl.org/dc/elements/1.1/">
 <metadata id="metadata6535">
  <rdf:RDF>
   <cc:Work rdf:about="">
    <dc:format>image/svg+xml</dc:format>
    <dc:type rdf:resource="http://purl.org/dc/dcmitype/StillImage"/>
    <dc:title/>
   </cc:Work>
  </rdf:RDF>
 </metadata>
 <path id="path11088" style="enable-background:new" fill="#fff" d="m7.5 7c-2.4853 0-4.5 2.0147-4.5 4.5 0 2.485 2.0147 4.5 4.5 4.5 1.9047-0.003 3.601-1.204 4.236-3l2.264-0.002v-3l-2.264 0.002c-0.635-1.7958-2.3313-2.9973-4.236-3zm10.5 2.9961v2.9961l1 0.004v-3h-1zm-10.5 0.004c0.82843 0 1.5 0.67157 1.5 1.5s-0.67157 1.5-1.5 1.5-1.5-0.67157-1.5-1.5 0.67157-1.5 1.5-1.5z"/>
 <rect id="rect11090" style="color:#bebebe" transform="rotate(-90)" height="22" width="22" y="0" x="-22" fill="none"/>
 <path id="path11098" style="color:#444444" d="m15 9-0.00001 4 0.25 2h1.5l0.25-2v-4zm0 7v2h2v-2z" class="error" fill="#5294e2"/>
</svg>

<?xml version="1.0" encoding="UTF-8" standalone="no"?>
<svg xmlns:dc="http://purl.org/dc/elements/1.1/" xmlns:cc="http://creativecommons.org/ns#" xmlns:rdf="http://www.w3.org/1999/02/22-rdf-syntax-ns#" xmlns:svg="http://www.w3.org/2000/svg" xmlns="http://www.w3.org/2000/svg" version="1.1" width="22" viewBox="0 0 22 22" height="22" id="svg6530">
    <metadata id="metadata6535">
        <rdf:RDF>
            <cc:Work rdf:about="">
                <dc:format>
                    image/svg+xml
                </dc:format>
                <dc:type rdf:resource="http://purl.org/dc/dcmitype/StillImage"/>
                <dc:title/>
            </cc:Work>
        </rdf:RDF>
    </metadata>
    <path id="path11088" style="fill:#ffffff;enable-background:new" d="M 7.5,7 C 5.0147,7 3,9.0147 3,11.5 3,13.9853 5.0147,16 7.5,16 9.4047,15.997 11.1014,14.7958 11.7363,13 L 14,12.998 14,9.998 11.7363,10 C 11.1014,8.2042 9.4047,7.0027 7.5,7 Z m 10.5,2.9961 0,2.9961 1,0.004 0,-3 -1,0 z m -10.5,0.004 c 0.82843,0 1.5,0.67157 1.5,1.5 0,0.82843 -0.67157,1.5 -1.5,1.5 -0.82843,0 -1.5,-0.67157 -1.5,-1.5 0,-0.82843 0.67157,-1.5 1.5,-1.5 z"/>
    <rect id="rect11090" style="color:#bebebe;fill:none" transform="matrix(0,-1,1,0,0,0)" height="22" width="22" y="0" x="-21.999985"/>
    <path id="path11098" style="color:#444444;fill:#5294e2;fill-opacity:1" d="m 15,9 -10e-6,4 0.25,2 1.5,0 0.25,-2 L 17,9 Z m 0,7 0,2 2,0 0,-2 z" class="error"/>
</svg>
